X:57
T:Cooley's
M:4/4
L:1/8
R:reel
K:D
EBBA B2EB|B2AB dBAG|FDAD BDAG|FDFA dAFD|
EBBA B2EB|B2AB defg|afef dBAd|1 DEFD E4:|DEFD E3g|
|:eBB2 egfg|eBB2 gedB|A2FA DAFA|BAFA defg|
eBB2 gBfB|eBB2 defg|afef dBAd|DEFD E3:|
